X:244
T:Jack McCann
C:Chris Crilly
Z:Chris Crilly
M:4/4
L:1/8
R:reel
K:Ador
|: A,2 (3B,A,G, A,2 (3B,A,G, | A,B,CD E2 DC | B,DG,B, DG B2 | BAGE DB,G,B, |
A,2 (3B,A,G, A,2 (3B,A,G, | A,B,CD E2 DC | B,DG,B, DG B2 | BAGE A4 :|
|: A2 (3cBA Bdef | g2 fa gedB | AcBA GFGE | DEGA BGcB |
[1 A2 (3cBA Bdef | g2 fa gedB | AcBA GFGE | DEGB A4 :|
[2 A2 (3cBA Bdef | (3gag fa gedB | g2 (3fga gedB | (3cBA BG FDCB |]
